assets/tel.svg

<svg width="21" height="21" viewBox="0 0 21 21" fill="none" xmlns="http://www.w3.org/2000/svg">
<path d="M18.1188 12.8657C18.018 12.1654 17.4772 11.6194 16.7811 11.4566C14.0752 10.8224 13.3969 9.26425 13.2825 7.53595C12.8026 7.4467 11.949 7.3501 10.5 7.3501C9.051 7.3501 8.19735 7.4467 7.7175 7.53595C7.60305 9.26425 6.92475 10.8224 4.2189 11.4566C3.52275 11.6204 2.982 12.1654 2.8812 12.8657L2.35935 16.4798C2.1756 17.7524 3.1101 18.9001 4.41 18.9001H16.59C17.8888 18.9001 18.8244 17.7524 18.6406 16.4798L18.1188 12.8657ZM10.5 16.2667C9.03525 16.2667 7.8477 15.0907 7.8477 13.6417C7.8477 12.1927 9.03525 11.0167 10.5 11.0167C11.9647 11.0167 13.1523 12.1927 13.1523 13.6417C13.1523 15.0907 11.9637 16.2667 10.5 16.2667ZM20.9475 6.3001C20.9223 4.7251 16.9134 2.10115 10.5 2.1001C4.08555 2.10115 0.0766496 4.7251 0.0524996 6.3001C0.0283496 7.8751 0.0745496 9.9247 2.71425 9.58345C5.8023 9.1834 5.61225 8.10505 5.61225 6.56365C5.61225 5.48845 8.12385 5.2291 10.5 5.2291C12.8761 5.2291 15.3867 5.48845 15.3877 6.56365C15.3877 8.10505 15.1977 9.1834 18.2857 9.58345C20.9244 9.9247 20.9716 7.8751 20.9475 6.3001Z" fill="#007550"/>
</svg>

<svg xmlns="http://www.w3.org/2000/svg" width="21" height="21" fill="none" xmlns:v="https://vecta.io/nano"><path d="M18.12 12.866c-.1-.7-.642-1.246-1.338-1.41-2.706-.634-3.384-2.192-3.5-3.92-.48-.09-1.334-.186-2.783-.186s-2.303.097-2.782.186c-.114 1.728-.793 3.286-3.5 3.92-.696.164-1.237.71-1.338 1.41L2.36 16.48c-.184 1.273.75 2.42 2.05 2.42H16.6c1.3 0 2.234-1.148 2.05-2.42l-.522-3.614zm-7.62 3.4a2.64 2.64 0 0 1-2.652-2.625 2.64 2.64 0 0 1 2.652-2.625 2.64 2.64 0 0 1 2.652 2.625c0 1.45-1.19 2.625-2.652 2.625zM20.948 6.3c-.025-1.575-4.034-4.2-10.448-4.2S.077 4.725.052 6.3.075 9.925 2.714 9.583c3.088-.4 2.898-1.478 2.898-3.02 0-1.075 2.512-1.335 4.888-1.335s4.887.26 4.888 1.335c0 1.54-.2 2.62 2.898 3.02 2.64.34 2.686-1.708 2.662-3.283z" fill="#007550"/></svg>
